X:74
T:Strand Hornpipe, The 
C:Joe Buchanan's Scottish Tome - Page 247.2
I:247 2
R:Hornpipe
Z:Carl Allison
L:1/8
M:4/4
K:G
"D7"g>a | "G"b>gd>B "B/G"G>Bd>g | "Am"f>ec>A "C"E2 "C#"_E2 | "D"D>dc>A "F#/D7"F>DE>F | "G"G>AB>c "D/G"d2 "D7"g>a |
"G"b>gd>B "B/G"G>B>dg | "Am"f>ec>A "C"E2 "C#"_E2 | "D7"F>dc>A "F#/D7"F>DE>F | "G"G2 "C"B2 "G"G2 :|
"A7"A>G | "D7"G>AB>c "F#/D7"c>DE>F | "C"G>AB>c "B/G"d2 A>G | "D7"F>GA>B "F#/D7"c>DE>F | "G"G>AB>c "D/G"d2 g>a |
"G"b>gd>B "B/G"G>Bd>g | "Am"f>ec>A "C"E2 "C3"_E2 | "D7"D>dc>A "F#/D7"F>DE>F | "G"G2 "C"B2 "G"G2 :|

